hornpipes/bobbycaseys.htmlhornpipes/bobbycaseys.htmlhornpipes/bobbycaseys.htmlhornpipes/bobbycaseys.htmlhornpipes/bobbycaseys.htmlhornpipes/bobbycaseys.htmlhornpipes/bobbycaseys.html<P ALIGN=Center>(7/8 tune)
<P ALIGN=Right>Emer Mayock
hornpipes/bobbycaseys.htmlhornpipes/bobbycaseys.html<PRE>T:Greeny
T:Greeny
M:7/8
L:1/8
Q:200
C:Emer Mayock
R:7/8 tune
D:Emer Mayock: Playground
Z:Devin McCabe
K:EDor
EBBA BcA|~B2AB GFG|A2AB FEF|B2A2 FGF|
!EBBA BcA|~B2AB cBA|B2AB GFG|1AGFG GFG:|2AGFG EGB|
K:G
!:geBc deg|B2AG ABc|BEED GAB|A2BG FGA|
!~g2Bc deg|B2Bc deg|f2gf edB|A2BG FGA:|
hornpipes/bobbycaseys.htmlhornpipes/bobbycaseys.htmlhornpipes/bobbycaseys.htmlhornpipes/bobbycaseys.htmlhornpipes/bobbycaseys.htmlhornpipes/bobbycaseys.htmlhornpipes/bobbycaseys.html